X:1
T:Alla Santissima Trinita
T:Alla Santissima Trinita
T:Giovanni Pietro Biandra
T:Source : Madrigaletti a 1,2 e 3 voci. Libroprimo---Venezia---B/Magni (Gardano)---1626. Editor : André Vierendeels (13/03/15).
T:Notes : Original clefs : C1, F4 Editorial accidentals above the staff
T:Aria
C:Giovanni Pietro Biandra
%%score 1 2
L:1/8
Q:1/4=120
M:4/4
K:C
V:1 treble nm="Canto" snm="C"
V:2 bass nm="BC" snm="BC"
V:1
 z4 e4 | A4 c4 | d4 d4 | e4 e4 | d6 cB | A3 G G2 G2 ::[M:3/2] G4 A4 B4 | c2 B2 c2 d2 e4 | %8
w: O|giu- st'e-|qua- li-|ta- te|u- ni- ca|de- i- ta- de,|O Tri- ni-|ta _ _ _ _|
w: In-|di- vi-|sa di-|mi- di|e di- mi-|den- do'an- ni- di|nel tri- on|fan- * * * *|
w: Sei|Pa- dre|Fi- glio'e|Spir- to|ma non pro-|du- c'il Spir- to|ne ge- ne-|r'il _ _ _ _|
w: O|Mae- sta-|de im-|men- sa|nel- le per-|so- ne'in- ten- sa|a me di|do- * * * *|
[M:4/4] c4 B4 | A4 z2 d2 | d2 d2 d2 d2 | d2 d4 cB | A4 G4 | z2 e2 AG AB | c3 d d4 | c8 :| %16
w: non tri-|na il|tut- t'a- te d'in-|chi- na'e ri- ve-|ri- sce,|e ri- * * *|* ve- ri-|sche.|
w: te'o- vu-|le il|giu- sto con l'hu-|mi- le'ad un o-|biet- to,|ad un _ _ _|_ o biet-|to.|
w: Fi- glio-|lo ma|ter- mi- n'in te|sol il Tri- no|Di- o,|il Tri- * * *|* no Di-|o.|
w: glia'op- pres-|so suan-|do fe- ra con-|ces- so di go-|der- ti,|di go- * * *|* * der-|ti|
V:2
 C,8 | F,4 E,4 | F,4 G,4 | C,4 C,4 | G,,2 A,,2 B,,2 C,2 | D,4 G,,4 ::[M:3/2] C,4 F,4 E,4 | %7
 A,4 A,,4 C,4 |[M:4/4] A,,4 E,4 | A,,4 D,3 C, | B,,2 A,,2 G,,2 ^F,,2 | G,,2 A,,2 B,,2 C,2 | %12
 D,4 G,,4 | C,4 F,4- | F,2 E,2 G,4 | C,8 :| %16

